X: 1
T: Michael Hynes's
M: 6/8
L: 1/8
R: jig
K: Gmaj
A2D FED|A2B cAF|G2E EDE|c2d cAG|
A2D FED|A2B cAF|GEE cEE|DED D2 z:|
Ade =fed|e2d cAF|G2E EDE|c2d cAG|
Ade =fed|e2d cAF|GEE cEE|DED D2 z:|
